app/images/icon/social-facebook.svg

<svg width="30" height="30" viewBox="0 0 30 30" fill="none" xmlns="http://www.w3.org/2000/svg">
<rect width="30" height="30" rx="2" fill="#4267B2"/>
<path d="M15.5436 21.9999V15.6139H17.6074L17.9164 13.1251H15.5436V11.5361C15.5436 10.8156 15.7362 10.3245 16.7311 10.3245L18 10.3239V8.09796C17.7805 8.06774 17.0273 8 16.151 8C14.3216 8 13.0692 9.15977 13.0692 11.2897V13.1252H11V15.6139H13.0691V22L15.5436 21.9999Z" fill="white"/>
</svg>

<svg width="30" height="30" fill="none" xmlns="http://www.w3.org/2000/svg">
    <rect width="30" height="30" rx="2" fill="#4267B2"/>
    <path d="M15.544 22v-6.386h2.063l.31-2.489h-2.373v-1.589c0-.72.192-1.211 1.187-1.211L18 10.324V8.098A16.38 16.38 0 0 0 16.151 8c-1.83 0-3.082 1.16-3.082 3.29v1.835H11v2.489h2.07V22h2.474Z" fill="#fff"/>
</svg>
